public/icons/weather-icons/Drizzle.svg

<svg width="249" height="205" viewBox="0 0 249 205" fill="none" xmlns="http://www.w3.org/2000/svg">
<path d="M71.6457 133.421C72.027 133.426 75.8965 140.583 75.8965 143.364C75.8965 146.145 73.9931 148.4 71.6457 148.4C69.2982 148.4 67.3948 146.145 67.3948 143.364C67.3948 140.583 71.2643 133.416 71.6457 133.421Z" fill="#42A0F0"/>
<path d="M69.1189 144.402C69.7138 144.197 70.2138 143.399 70.2357 142.62C70.2575 141.841 69.7929 141.376 69.198 141.58C68.603 141.785 68.103 142.583 68.0812 143.362C68.0593 144.141 68.5239 144.607 69.1189 144.402Z" fill="white"/>
<path d="M101.144 133.421C101.525 133.426 105.395 140.583 105.395 143.364C105.395 146.145 103.492 148.4 101.144 148.4C98.7967 148.4 96.8934 146.145 96.8934 143.364C96.8934 140.583 100.763 133.416 101.144 133.421Z" fill="#42A0F0"/>
<path d="M98.6174 144.402C99.2124 144.197 99.7124 143.399 99.7342 142.62C99.756 141.841 99.2914 141.376 98.6965 141.58C98.1016 141.785 97.6016 142.583 97.5797 143.362C97.5579 144.141 98.0225 144.607 98.6174 144.402Z" fill="white"/>
<path d="M132.792 133.421C133.173 133.426 137.043 140.583 137.043 143.364C137.043 146.145 135.14 148.4 132.792 148.4C130.445 148.4 128.541 146.145 128.541 143.364C128.541 140.583 132.411 133.416 132.792 133.421Z" fill="#42A0F0"/>
<path d="M130.265 144.402C130.86 144.197 131.36 143.399 131.382 142.62C131.404 141.841 130.939 141.376 130.344 141.58C129.75 141.785 129.25 142.583 129.228 143.362C129.206 144.141 129.67 144.607 130.265 144.402Z" fill="white"/>
<path d="M162.022 132.57C162.403 132.575 166.273 139.732 166.273 142.513C166.273 145.294 164.37 147.549 162.022 147.549C159.675 147.549 157.771 145.294 157.771 142.513C157.771 139.732 161.641 132.565 162.022 132.57Z" fill="#42A0F0"/>
<path d="M159.495 143.551C160.09 143.346 160.59 142.548 160.612 141.769C160.634 140.99 160.169 140.525 159.575 140.729C158.98 140.934 158.48 141.732 158.458 142.511C158.436 143.29 158.901 143.756 159.495 143.551Z" fill="white"/>
<path d="M116.038 152.427C116.419 152.432 120.288 159.589 120.288 162.37C120.288 165.151 118.385 167.405 116.038 167.405C113.69 167.405 111.787 165.151 111.787 162.37C111.787 159.589 115.656 152.422 116.038 152.427Z" fill="#42A0F0"/>
<path d="M113.511 163.407C114.106 163.202 114.606 162.405 114.627 161.626C114.649 160.847 114.185 160.381 113.59 160.586C112.995 160.791 112.495 161.588 112.473 162.368C112.451 163.147 112.916 163.612 113.511 163.407Z" fill="white"/>
<path d="M147.685 152.427C148.066 152.432 151.936 159.589 151.936 162.37C151.936 165.151 150.032 167.405 147.685 167.405C145.337 167.405 143.434 165.151 143.434 162.37C143.434 159.589 147.304 152.422 147.685 152.427Z" fill="#42A0F0"/>
<path d="M145.158 163.407C145.753 163.202 146.253 162.405 146.275 161.626C146.297 160.847 145.832 160.381 145.237 160.586C144.642 160.791 144.142 161.588 144.12 162.368C144.099 163.147 144.563 163.612 145.158 163.407Z" fill="white"/>
<path d="M181.194 152.427C181.575 152.432 185.445 159.589 185.445 162.37C185.445 165.151 183.541 167.405 181.194 167.405C178.847 167.405 176.943 165.151 176.943 162.37C176.943 159.589 180.813 152.422 181.194 152.427Z" fill="#42A0F0"/>
<path d="M178.667 163.407C179.262 163.202 179.762 162.405 179.784 161.626C179.806 160.847 179.341 160.381 178.746 160.586C178.151 160.791 177.651 161.588 177.63 162.368C177.608 163.147 178.072 163.612 178.667 163.407Z" fill="white"/>
<path d="M84.3902 153.278C84.7715 153.283 88.641 160.44 88.641 163.221C88.641 166.002 86.7376 168.256 84.3902 168.256C82.0427 168.256 80.1393 166.002 80.1393 163.221C80.1393 160.44 84.0089 153.273 84.3902 153.278Z" fill="#42A0F0"/>
<path d="M81.8634 164.258C82.4583 164.054 82.9583 163.256 82.9802 162.477C83.002 161.698 82.5374 161.232 81.9425 161.437C81.3475 161.642 80.8475 162.44 80.8257 163.219C80.8039 163.998 81.2684 164.463 81.8634 164.258Z" fill="white"/>
<path d="M54.604 152.427C54.9853 152.432 58.8548 159.589 58.8548 162.37C58.8548 165.151 56.9515 167.405 54.604 167.405C52.2565 167.405 50.3532 165.151 50.3532 162.37C50.3532 159.589 54.2227 152.422 54.604 152.427Z" fill="#42A0F0"/>
<path d="M52.0773 163.407C52.6722 163.202 53.1722 162.405 53.194 161.626C53.2159 160.847 52.7513 160.381 52.1563 160.586C51.5614 160.791 51.0614 161.588 51.0396 162.368C51.0177 163.147 51.4823 163.612 52.0773 163.407Z" fill="white"/>
<path d="M71.6457 167.461C72.027 167.466 75.8965 174.623 75.8965 177.404C75.8965 180.185 73.9931 182.44 71.6457 182.44C69.2982 182.44 67.3948 180.185 67.3948 177.404C67.3948 174.623 71.2643 167.456 71.6457 167.461Z" fill="#42A0F0"/>
<path d="M69.1189 178.442C69.7138 178.237 70.2138 177.439 70.2357 176.66C70.2575 175.881 69.7929 175.415 69.198 175.62C68.603 175.825 68.103 176.623 68.0812 177.402C68.0593 178.181 68.5239 178.646 69.1189 178.442Z" fill="white"/>
<path d="M101.144 167.461C101.525 167.466 105.395 174.623 105.395 177.404C105.395 180.185 103.492 182.44 101.144 182.44C98.7967 182.44 96.8934 180.185 96.8934 177.404C96.8934 174.623 100.763 167.456 101.144 167.461Z" fill="#42A0F0"/>
<path d="M98.6174 178.442C99.2124 178.237 99.7123 177.439 99.7342 176.66C99.756 175.881 99.2914 175.415 98.6965 175.62C98.1016 175.825 97.6016 176.623 97.5797 177.402C97.5579 178.181 98.0225 178.646 98.6174 178.442Z" fill="white"/>
<path d="M132.792 167.461C133.173 167.466 137.043 174.623 137.043 177.404C137.043 180.185 135.14 182.44 132.792 182.44C130.445 182.44 128.541 180.185 128.541 177.404C128.541 174.623 132.411 167.456 132.792 167.461Z" fill="#42A0F0"/>
<path d="M130.265 178.442C130.86 178.237 131.36 177.439 131.382 176.66C131.404 175.881 130.939 175.415 130.344 175.62C129.75 175.825 129.25 176.623 129.228 177.402C129.206 178.181 129.67 178.646 130.265 178.442Z" fill="white"/>
<path d="M162.022 167.461C162.403 167.466 166.273 174.623 166.273 177.404C166.273 180.185 164.37 182.44 162.022 182.44C159.675 182.44 157.771 180.185 157.771 177.404C157.771 174.623 161.641 167.456 162.022 167.461Z" fill="#42A0F0"/>
<path d="M159.495 178.442C160.09 178.237 160.59 177.439 160.612 176.66C160.634 175.881 160.169 175.415 159.575 175.62C158.98 175.825 158.48 176.623 158.458 177.402C158.436 178.181 158.901 178.646 159.495 178.442Z" fill="white"/>
<g filter="url(#filter0_d_1506_807)">
<path d="M160.245 145.694H58.2979C48.4083 145.686 38.9049 141.853 31.7773 134.997C24.6497 128.142 20.4505 118.794 20.0588 108.912C19.6671 99.0303 23.1132 89.38 29.6758 81.9814C36.2384 74.5829 45.4086 70.0098 55.2667 69.2195C56.6725 59.2927 61.1551 50.0565 68.0839 42.8103C75.0127 35.564 84.039 30.6724 93.8928 28.8236C103.747 26.9748 113.932 28.2619 123.016 32.5037C132.101 36.7456 139.626 43.7287 144.535 52.4708C153.538 49.3544 163.265 48.9902 172.475 51.4247C181.686 53.8592 189.962 58.982 196.249 66.1397C202.536 73.2975 206.549 82.1657 207.775 91.6133C209.001 101.061 207.385 110.66 203.134 119.185C200.639 126.888 195.768 133.603 189.219 138.366C182.671 143.128 174.782 145.694 166.685 145.694H160.245Z" fill="url(#paint0_linear_1506_807)"/>
<path d="M166.684 145.161C170.796 145.161 174.838 144.504 178.699 143.21C182.433 141.958 185.938 140.131 189.117 137.78C192.26 135.455 195.015 132.671 197.305 129.504C199.624 126.298 201.414 122.771 202.626 119.021L202.639 118.983L202.657 118.946C204.268 115.726 205.509 112.319 206.345 108.82C207.206 105.22 207.642 101.5 207.642 97.7639C207.642 94.5477 207.318 91.3338 206.679 88.2112C206.056 85.1683 205.127 82.1752 203.917 79.3151C202.73 76.5067 201.259 73.798 199.548 71.2642C197.852 68.7544 195.905 66.3942 193.76 64.2492C191.615 62.1043 189.254 60.1569 186.745 58.4613C184.211 56.7495 181.502 55.2792 178.694 54.0914C175.834 52.8816 172.84 51.9525 169.798 51.3298C166.675 50.6908 163.461 50.3669 160.245 50.3669C154.92 50.3669 149.692 51.2433 144.709 52.9717L144.288 53.1176L144.07 52.7296C140.014 45.5179 134.115 39.4614 127.009 35.2149C123.416 33.0674 119.555 31.4078 115.535 30.2824C111.387 29.1213 107.078 28.5326 102.729 28.5326C96.8793 28.5326 91.1689 29.5854 85.7566 31.6618C80.5279 33.6678 75.7315 36.5654 71.5004 40.2742C67.2937 43.9617 63.8027 48.3126 61.1243 53.2061C58.3801 58.2197 56.5865 63.6315 55.7934 69.2913L55.7341 69.7149L55.3076 69.7483C50.5369 70.1217 45.9469 71.3778 41.6651 73.4815C37.5046 75.5257 33.7894 78.2906 30.6228 81.6994C24.116 88.7038 20.5326 97.8298 20.5326 107.396C20.5326 112.495 21.531 117.44 23.5001 122.096C24.4465 124.333 25.6179 126.492 26.9819 128.51C28.3329 130.51 29.8845 132.391 31.5936 134.1C33.3026 135.809 35.1832 137.361 37.183 138.712C39.2019 140.076 41.3601 141.247 43.5977 142.193C48.2531 144.162 53.1987 145.161 58.2971 145.161H160.245H166.684ZM166.684 145.693H160.245H58.2971C37.1463 145.693 20 128.547 20 107.396C20 87.2653 35.5316 70.7621 55.266 69.2174C58.5303 45.9243 78.5364 28 102.729 28C120.677 28 136.321 37.8646 144.534 52.4686C149.456 50.7616 154.742 49.8343 160.245 49.8343C186.716 49.8343 208.174 71.2933 208.174 97.7639C208.174 105.463 206.359 112.739 203.133 119.185C198.162 134.568 183.722 145.693 166.684 145.693Z" fill="white" fill-opacity="0.5"/>
</g>
<defs>
<filter id="filter0_d_1506_807" x="0" y="0" width="248.174" height="177.694" filterUnits="userSpaceOnUse" color-interpolation-filters="sRGB">
<feFlood flood-opacity="0" result="BackgroundImageFix"/>
<feColorMatrix in="SourceAlpha" type="matrix" values="0 0 0 0 0 0 0 0 0 0 0 0 0 0 0 0 0 0 127 0" result="hardAlpha"/>
<feOffset dx="10" dy="2"/>
<feGaussianBlur stdDeviation="15"/>
<feColorMatrix type="matrix" values="0 0 0 0 0 0 0 0 0 0 0 0 0 0 0 0 0 0 0.25 0"/>
<feBlend mode="normal" in2="BackgroundImageFix" result="effect1_dropShadow_1506_807"/>
<feBlend mode="normal" in="SourceGraphic" in2="effect1_dropShadow_1506_807" result="shape"/>
</filter>
<linearGradient id="paint0_linear_1506_807" x1="114.101" y1="28.0014" x2="168.764" y2="160.161" gradientUnits="userSpaceOnUse">
<stop stop-color="white" stop-opacity="0.604"/>
<stop offset="1" stop-color="white" stop-opacity="0.2"/>
</linearGradient>
</defs>
</svg>

<svg xmlns="http://www.w3.org/2000/svg" width="249" height="205" fill="none"><path fill="#42A0F0" d="M71.646 133.421c.381.005 4.25 7.162 4.25 9.943s-1.903 5.036-4.25 5.036-4.251-2.255-4.251-5.036 3.87-9.948 4.25-9.943"/><path fill="#fff" d="M69.119 144.402c.595-.205 1.095-1.003 1.117-1.782.021-.779-.443-1.244-1.038-1.04-.595.205-1.095 1.003-1.117 1.782s.443 1.245 1.038 1.04"/><path fill="#42A0F0" d="M101.144 133.421c.381.005 4.251 7.162 4.251 9.943s-1.903 5.036-4.251 5.036c-2.347 0-4.25-2.255-4.25-5.036s3.869-9.948 4.25-9.943"/><path fill="#fff" d="M98.617 144.402c.595-.205 1.095-1.003 1.117-1.782s-.443-1.244-1.037-1.04c-.595.205-1.095 1.003-1.117 1.782s.442 1.245 1.037 1.04"/><path fill="#42A0F0" d="M132.792 133.421c.381.005 4.251 7.162 4.251 9.943s-1.903 5.036-4.251 5.036c-2.347 0-4.251-2.255-4.251-5.036s3.87-9.948 4.251-9.943"/><path fill="#fff" d="M130.265 144.402c.595-.205 1.095-1.003 1.117-1.782s-.443-1.244-1.038-1.04c-.594.205-1.094 1.003-1.116 1.782s.442 1.245 1.037 1.04"/><path fill="#42A0F0" d="M162.022 132.57c.381.005 4.251 7.162 4.251 9.943s-1.903 5.036-4.251 5.036c-2.347 0-4.251-2.255-4.251-5.036s3.87-9.948 4.251-9.943"/><path fill="#fff" d="M159.495 143.551c.595-.205 1.095-1.003 1.117-1.782s-.443-1.244-1.037-1.04c-.595.205-1.095 1.003-1.117 1.782s.443 1.245 1.037 1.04"/><path fill="#42A0F0" d="M116.038 152.427c.381.005 4.25 7.162 4.25 9.943s-1.903 5.035-4.25 5.035-4.251-2.254-4.251-5.035 3.869-9.948 4.251-9.943"/><path fill="#fff" d="M113.511 163.407c.595-.205 1.095-1.002 1.116-1.781s-.442-1.245-1.037-1.04-1.095 1.002-1.117 1.782c-.022.779.443 1.244 1.038 1.039"/><path fill="#42A0F0" d="M147.685 152.427c.381.005 4.251 7.162 4.251 9.943s-1.904 5.035-4.251 5.035-4.251-2.254-4.251-5.035 3.87-9.948 4.251-9.943"/><path fill="#fff" d="M145.158 163.407c.595-.205 1.095-1.002 1.117-1.781s-.443-1.245-1.038-1.04-1.095 1.002-1.117 1.782c-.021.779.443 1.244 1.038 1.039"/><path fill="#42A0F0" d="M181.194 152.427c.381.005 4.251 7.162 4.251 9.943s-1.904 5.035-4.251 5.035-4.251-2.254-4.251-5.035 3.87-9.948 4.251-9.943"/><path fill="#fff" d="M178.667 163.407c.595-.205 1.095-1.002 1.117-1.781s-.443-1.245-1.038-1.04-1.095 1.002-1.116 1.782c-.022.779.442 1.244 1.037 1.039"/><path fill="#42A0F0" d="M84.39 153.278c.382.005 4.251 7.162 4.251 9.943s-1.903 5.035-4.25 5.035-4.252-2.254-4.252-5.035 3.87-9.948 4.251-9.943"/><path fill="#fff" d="M81.863 164.258c.595-.204 1.095-1.002 1.117-1.781s-.443-1.245-1.038-1.04c-.594.205-1.094 1.003-1.116 1.782s.442 1.244 1.037 1.039"/><path fill="#42A0F0" d="M54.604 152.427c.381.005 4.25 7.162 4.25 9.943s-1.902 5.035-4.25 5.035-4.25-2.254-4.25-5.035 3.869-9.948 4.25-9.943"/><path fill="#fff" d="M52.077 163.407c.595-.205 1.095-1.002 1.117-1.781s-.443-1.245-1.038-1.04-1.095 1.002-1.116 1.782c-.022.779.442 1.244 1.037 1.039"/><path fill="#42A0F0" d="M71.646 167.461c.381.005 4.25 7.162 4.25 9.943s-1.903 5.036-4.25 5.036-4.251-2.255-4.251-5.036 3.87-9.948 4.25-9.943"/><path fill="#fff" d="M69.119 178.442c.595-.205 1.095-1.003 1.117-1.782.021-.779-.443-1.245-1.038-1.04s-1.095 1.003-1.117 1.782.443 1.244 1.038 1.04"/><path fill="#42A0F0" d="M101.144 167.461c.381.005 4.251 7.162 4.251 9.943s-1.903 5.036-4.251 5.036c-2.347 0-4.25-2.255-4.25-5.036s3.869-9.948 4.25-9.943"/><path fill="#fff" d="M98.617 178.442c.595-.205 1.095-1.003 1.117-1.782s-.443-1.245-1.037-1.04c-.595.205-1.095 1.003-1.117 1.782s.442 1.244 1.037 1.04"/><path fill="#42A0F0" d="M132.792 167.461c.381.005 4.251 7.162 4.251 9.943s-1.903 5.036-4.251 5.036c-2.347 0-4.251-2.255-4.251-5.036s3.87-9.948 4.251-9.943"/><path fill="#fff" d="M130.265 178.442c.595-.205 1.095-1.003 1.117-1.782s-.443-1.245-1.038-1.04c-.594.205-1.094 1.003-1.116 1.782s.442 1.244 1.037 1.04"/><path fill="#42A0F0" d="M162.022 167.461c.381.005 4.251 7.162 4.251 9.943s-1.903 5.036-4.251 5.036c-2.347 0-4.251-2.255-4.251-5.036s3.87-9.948 4.251-9.943"/><path fill="#fff" d="M159.495 178.442c.595-.205 1.095-1.003 1.117-1.782s-.443-1.245-1.037-1.04c-.595.205-1.095 1.003-1.117 1.782s.443 1.244 1.037 1.04"/><g filter="url(#a)"><path fill="url(#b)" d="M160.245 145.694H58.298a38.3 38.3 0 0 1-28.622-63.713 38.3 38.3 0 0 1 25.59-12.761 47.94 47.94 0 0 1 89.269-16.75 47.953 47.953 0 0 1 58.599 66.715 38.32 38.32 0 0 1-36.449 26.509z"/><path fill="#fff" fill-opacity=".5" d="M166.684 145.161c4.112 0 8.154-.657 12.015-1.951a37.6 37.6 0 0 0 10.418-5.43 38 38 0 0 0 8.188-8.276 37.6 37.6 0 0 0 5.321-10.483l.013-.038.018-.037a47.2 47.2 0 0 0 3.688-10.126c.861-3.6 1.297-7.32 1.297-11.056 0-3.216-.324-6.43-.963-9.553a47.2 47.2 0 0 0-7.131-16.947 47.8 47.8 0 0 0-5.788-7.015 47.42 47.42 0 0 0-15.066-10.158 47 47 0 0 0-8.896-2.761 47.8 47.8 0 0 0-9.553-.963c-5.325 0-10.553.876-15.536 2.605l-.421.146-.218-.388a47.65 47.65 0 0 0-17.061-17.515 47.2 47.2 0 0 0-11.474-4.933 47.5 47.5 0 0 0-12.806-1.75A47.2 47.2 0 0 0 71.5 40.275a47.4 47.4 0 0 0-10.376 12.932 47 47 0 0 0-5.33 16.085l-.06.424-.426.033c-4.771.374-9.361 1.63-13.643 3.733A37.7 37.7 0 0 0 30.623 81.7a37.64 37.64 0 0 0-10.09 25.697 37.5 37.5 0 0 0 2.967 14.7 37.7 37.7 0 0 0 3.482 6.414 38 38 0 0 0 10.201 10.202 37.7 37.7 0 0 0 6.415 3.481 37.5 37.5 0 0 0 14.7 2.968h108.386m0 .532H58.297c-21.15 0-38.297-17.146-38.297-38.297 0-20.13 15.532-36.634 35.266-38.179C58.53 45.924 78.536 28 102.729 28c17.948 0 33.592 9.865 41.805 24.469a47.9 47.9 0 0 1 15.711-2.635c26.471 0 47.929 21.46 47.929 47.93a47.7 47.7 0 0 1-5.041 21.421c-4.971 15.383-19.411 26.508-36.449 26.508"/></g><defs><linearGradient id="b" x1="114.101" x2="168.764" y1="28.001" y2="160.161" gradientUnits="userSpaceOnUse"><stop stop-color="#fff" stop-opacity=".604"/><stop offset="1" stop-color="#fff" stop-opacity=".2"/></linearGradient><filter id="a" width="248.174" height="177.694" x="0" y="0" color-interpolation-filters="sRGB" filterUnits="userSpaceOnUse"><feFlood flood-opacity="0" result="BackgroundImageFix"/><feColorMatrix in="SourceAlpha" result="hardAlpha" values="0 0 0 0 0 0 0 0 0 0 0 0 0 0 0 0 0 0 127 0"/><feOffset dx="10" dy="2"/><feGaussianBlur stdDeviation="15"/><feColorMatrix values="0 0 0 0 0 0 0 0 0 0 0 0 0 0 0 0 0 0 0.25 0"/><feBlend in2="BackgroundImageFix" result="effect1_dropShadow_1506_807"/><feBlend in="SourceGraphic" in2="effect1_dropShadow_1506_807" result="shape"/></filter></defs></svg>
